Adwaita++/actions/22/stroke-join-miter.svg

<svg height="22" viewBox="0 0 22 22" width="22" xmlns="http://www.w3.org/2000/svg">
  <path d="m2 2v12h4v-8h8v-4zm1 1h10v2h-8v8h-2zm5 5v6h4v-2h2v-4zm1 1h4v2h-2v2h-2z" fill="#444" transform="translate(3 3)"/>
</svg>

<svg xmlns="http://www.w3.org/2000/svg" width="22" height="22" viewBox="0 0 22 22">
 <defs>
  <style id="current-color-scheme" type="text/css">
   .ColorScheme-Text { color:#444444; } .ColorScheme-Highlight { color:#4285f4; }
  </style>
 </defs>
 <path style="fill:currentColor" class="ColorScheme-Text" d="M 2 2 L 2 14 L 6 14 L 6 6 L 14 6 L 14 2 L 2 2 z M 3 3 L 13 3 L 13 5 L 5 5 L 5 13 L 3 13 L 3 3 z M 8 8 L 8 14 L 12 14 L 12 12 L 14 12 L 14 8 L 8 8 z M 9 9 L 13 9 L 13 11 L 11 11 L 11 13 L 9 13 L 9 9 z" transform="translate(3 3)"/>
</svg>
